public/avatar/item2/28.svg

<svg xmlns:xlink="http://www.w3.org/1999/xlink" height="99.2" width="82.2" xmlns="http://www.w3.org/2000/svg"><use height="16.2" transform="translate(8 69.9)" width="17.1" xlink:href="#a"/><defs><g id="a" fill-rule="evenodd"><path d="m-22.7 30.45.55.1q1.25 1 3.85.7 4.15-.35 5.7-2.3l.5-.15.35.4.1.3q1.15 3.2-.5 5.45-1.25 1.65-3.3 3-2.8 1.9-4.75 1.2-3.05-1.05-2.8-8.25l.3-.45" fill="#353535" transform="translate(23 -23.15)"/><path d="m-22.05 31.65 5.05.2q3-.75 4.5-2l.45 1.35q.2 1.3-.9 2.85-2.4 3.25-5.35 4-4 .95-3.75-6.4" fill="#b7b7b7" transform="translate(23 -23.15)"/><path d="m-18.1 32.05-3.25 4.6q-.6-1.05-.65-2.85l1.75-1.65 2.15-.1m2.9-.75 1.25-.55-2.2 6.25q-1.65 1.05-2.85 1.1 1.55-2.45 3.8-6.8" fill="#fff" transform="translate(23 -23.15)"/><path d="m-18.4 38-.75.15q-1.35 0-2.15-1.35l-.05-.1 1.85.4 1.25-.15-.75 1.15.6-.1m2.25-1 .3-.95 2.75-1.85-.7.8-.05.05v.05l-2.3 1.9" fill="#8d8d8d" transform="translate(23 -23.15)"/><path d="m-16.15 37-.35.2v.05l-.15.05-.05.05-.15.05v.05q-1.25.6-2.15.65l.75-1.15q.95-.2 2.4-.9l-.3.95" fill="#9f9f9f" transform="translate(23 -23.15)"/><path d="M-9.25 30.15v.45l-.1 1.1.05.95-.1 2.95.3.15q1.35.55 1.35 1.45v.1l-.05.25q-1.2 1.6-3.5 1-1.4-.3-1.7-1.7l-.25-7.85q0-1.65-.2-2-.2-.4-1.25-.45l-.35-.15-.1-.4q.1-2.8 3.05-2.85 2.85.1 2.85 7" fill="#351e02" transform="translate(23 -23.15)"/><path d="M-14.35 25.8q.4-1.6 2.25-1.65 2.4.65 1.9 11.65l1.55 1.35q-.55.75-1.85.75-1.35 0-1.5-1.1l-.2-5.55q-.05-3.3-.25-4.15-.25-1.25-1.9-1.3" fill="#f8c606" transform="translate(23 -23.15)"/><path d="M-10.15 34.95-12 36.6l-.15-2.6q1.2-.55 2.05-1.45l-.05 2.4" fill="#b05e06" transform="translate(23 -23.15)"/><path d="M-12.3 30.35q0-1.3.95-2.25t2.25-.95q3.2 0 3.2 3.2 0 3.25-3.2 3.25t-3.2-3.25" fill="#351e02" transform="translate(23 -23.15)"/><path d="M-6.85 30.35q0 2.3-2.25 2.3t-2.25-2.3q0-2.25 2.25-2.25t2.25 2.25" fill="#f8c606" transform="translate(23 -23.15)"/><path d="M-8 28.4q1.15.65 1.15 1.95 0 2.3-2.25 2.3-1.5 0-2.1-1.45.7.6 1.5.6 2.15 0 2.15-2.1 0-.65-.45-1.3" fill="#b05e06" transform="translate(23 -23.15)"/><path d="M-10.7 29.55q0-1.1 1.1-1.1 1.05 0 1.05 1.1 0 1.05-1.05 1.05-1.1 0-1.1-1.05" fill="#fff" transform="translate(23 -23.15)"/></g></defs></svg>

<?xml version="1.0" encoding="UTF-8" standalone="no"?>
<svg xmlns:xlink="http://www.w3.org/1999/xlink" height="99.2px" width="82.2px" xmlns="http://www.w3.org/2000/svg">
  <g transform="matrix(1.0, 0.0, 0.0, 1.0, 31.0, 46.75)">
    <use height="16.2" transform="matrix(1.0, 0.0, 0.0, 1.0, -23.0, 23.15)" width="17.1" xlink:href="#shape0"/>
  </g>
  <defs>
    <g id="shape0" transform="matrix(1.0, 0.0, 0.0, 1.0, 23.0, -23.15)">
      <path d="M-22.7 30.45 L-22.15 30.55 Q-20.9 31.55 -18.3 31.25 -14.15 30.9 -12.6 28.95 L-12.1 28.8 -11.75 29.2 -11.65 29.5 Q-10.5 32.7 -12.15 34.95 -13.4 36.6 -15.45 37.95 -18.25 39.85 -20.2 39.15 -23.25 38.1 -23.0 30.9 L-22.7 30.45" fill="#353535" fill-rule="evenodd" stroke="none"/>
      <path d="M-22.05 31.65 L-17.0 31.85 Q-14.0 31.1 -12.5 29.85 L-12.05 31.2 Q-11.85 32.5 -12.95 34.05 -15.35 37.3 -18.3 38.05 -22.3 39.0 -22.05 31.65" fill="#b7b7b7" fill-rule="evenodd" stroke="none"/>
      <path d="M-18.1 32.05 L-21.35 36.65 Q-21.95 35.6 -22.0 33.8 L-20.25 32.15 -18.1 32.05" fill="#ffffff" fill-rule="evenodd" stroke="none"/>
      <path d="M-15.2 31.3 L-13.95 30.75 -16.15 37.0 Q-17.8 38.05 -19.0 38.1 -17.45 35.65 -15.2 31.3" fill="#ffffff" fill-rule="evenodd" stroke="none"/>
      <path d="M-18.4 38.0 L-19.15 38.15 Q-20.5 38.15 -21.3 36.8 L-21.35 36.7 -19.5 37.1 -18.25 36.95 -19.0 38.1 -18.4 38.0" fill="#8d8d8d" fill-rule="evenodd" stroke="none"/>
      <path d="M-16.15 37.0 L-15.85 36.05 -13.1 34.2 -13.8 35.0 -13.85 35.05 -13.85 35.1 -16.15 37.0" fill="#8d8d8d" fill-rule="evenodd" stroke="none"/>
      <path d="M-16.15 37.0 L-16.5 37.2 -16.5 37.25 -16.65 37.3 -16.7 37.35 -16.85 37.4 -16.85 37.45 Q-18.1 38.05 -19.0 38.1 L-18.25 36.95 Q-17.3 36.75 -15.85 36.05 L-16.15 37.0" fill="#9f9f9f" fill-rule="evenodd" stroke="none"/>
      <path d="M-9.25 30.15 L-9.25 30.6 -9.35 31.7 -9.3 32.65 -9.4 35.6 -9.1 35.75 Q-7.75 36.3 -7.75 37.2 L-7.75 37.3 -7.8 37.55 Q-9.0 39.15 -11.3 38.55 -12.7 38.25 -13.0 36.85 L-13.25 29.0 Q-13.25 27.35 -13.45 27.0 -13.65 26.6 -14.7 26.55 L-15.05 26.4 -15.15 26.0 Q-15.05 23.2 -12.1 23.15 -9.25 23.25 -9.25 30.15" fill="#351e02" fill-rule="evenodd" stroke="none"/>
      <path d="M-14.35 25.8 Q-13.95 24.2 -12.1 24.15 -9.7 24.8 -10.2 35.8 L-8.65 37.15 Q-9.2 37.9 -10.5 37.9 -11.85 37.9 -12.0 36.8 L-12.2 31.25 Q-12.25 27.95 -12.45 27.1 -12.7 25.85 -14.35 25.8" fill="#f8c606" fill-rule="evenodd" stroke="none"/>
      <path d="M-10.15 34.95 L-12.0 36.6 -12.15 34.0 Q-10.95 33.45 -10.1 32.55 L-10.15 34.95" fill="#b05e06" fill-rule="evenodd" stroke="none"/>
      <path d="M-12.3 30.35 Q-12.3 29.05 -11.35 28.1 -10.4 27.15 -9.1 27.15 -5.9 27.15 -5.9 30.35 -5.9 33.6 -9.1 33.6 -12.3 33.6 -12.3 30.35" fill="#351e02" fill-rule="evenodd" stroke="none"/>
      <path d="M-6.85 30.35 Q-6.85 32.65 -9.1 32.65 -11.35 32.65 -11.35 30.35 -11.35 28.1 -9.1 28.1 -6.85 28.1 -6.85 30.35" fill="#f8c606" fill-rule="evenodd" stroke="none"/>
      <path d="M-8.0 28.4 Q-6.85 29.05 -6.85 30.35 -6.85 32.65 -9.1 32.65 -10.6 32.65 -11.2 31.2 -10.5 31.8 -9.7 31.8 -7.55 31.8 -7.55 29.7 -7.55 29.05 -8.0 28.4" fill="#b05e06" fill-rule="evenodd" stroke="none"/>
      <path d="M-10.7 29.55 Q-10.7 28.45 -9.6 28.45 -8.55 28.45 -8.55 29.55 -8.55 30.6 -9.6 30.6 -10.7 30.6 -10.7 29.55" fill="#ffffff" fill-rule="evenodd" stroke="none"/>
    </g>
  </defs>
</svg>
